static/logos/shopify-glyph-color.svg

<svg width="50" height="58" viewBox="0 0 50 58" fill="none" xmlns="http://www.w3.org/2000/svg">
<path d="M43.7019 11.1981C43.6626 10.913 43.4128 10.7552 43.2064 10.7378C43.0004 10.7206 38.6399 10.3974 38.6399 10.3974C38.6399 10.3974 35.6115 7.39086 35.2791 7.05808C34.9465 6.7255 34.297 6.82666 34.0448 6.90087C34.0077 6.9118 33.3832 7.10456 32.3501 7.42425C31.3385 4.51322 29.5531 1.83809 26.4122 1.83809C26.3255 1.83809 26.2362 1.84161 26.147 1.84669C25.2537 0.66536 24.1472 0.15213 23.1914 0.15213C15.8748 0.15213 12.3792 9.29868 11.2832 13.9466C8.44017 14.8276 6.42045 15.4539 6.16247 15.535C4.57552 16.0328 4.52533 16.0828 4.31695 17.5781C4.16013 18.7102 0.0078125 50.8221 0.0078125 50.8221L32.3636 56.8843L49.895 53.0918C49.895 53.0918 43.7407 11.4832 43.7021 11.1981H43.7019ZM30.5618 7.97732L27.824 8.8247C27.825 8.63175 27.8259 8.44193 27.8259 8.23433C27.8259 6.42514 27.5748 4.96844 27.1719 3.81368C28.7903 4.01678 29.8681 5.8582 30.5618 7.97732ZM25.1643 4.17243C25.6142 5.29986 25.9068 6.91786 25.9068 9.10123C25.9068 9.21294 25.9058 9.31508 25.9048 9.41839C24.1243 9.9699 22.1896 10.5687 20.2505 11.1694C21.3393 6.96746 23.3801 4.93798 25.1643 4.17243V4.17243ZM22.9905 2.11463C23.3063 2.11463 23.6244 2.22184 23.9289 2.43139C21.584 3.5348 19.0706 6.31382 18.0091 11.8635L13.5397 13.2477C14.7829 9.01472 17.7349 2.11463 22.9903 2.11463H22.9905Z" fill="#95BF46"/>
<path d="M43.2085 10.7378C43.0025 10.7206 38.642 10.3974 38.642 10.3974C38.642 10.3974 35.6135 7.39085 35.2812 7.05807C35.1568 6.93426 34.989 6.87079 34.8136 6.84344L32.3672 56.8839L49.8971 53.0917C49.8971 53.0917 43.7426 11.4832 43.7039 11.1981C43.6647 10.913 43.4149 10.7552 43.2085 10.7378" fill="#5E8E3E"/>
<path d="M26.4163 20.4247L24.2546 26.8549C24.2546 26.8549 22.3606 25.8441 20.039 25.8441C16.6354 25.8441 16.4642 27.98 16.4642 28.5183C16.4642 31.4551 24.1196 32.5803 24.1196 39.4593C24.1196 44.8715 20.687 48.3565 16.0585 48.3565C10.5044 48.3565 7.66406 44.8998 7.66406 44.8998L9.15122 39.9862C9.15122 39.9862 12.0708 42.4928 14.5345 42.4928C16.1443 42.4928 16.7991 41.2254 16.7991 40.2993C16.7991 36.4684 10.5185 36.2976 10.5185 30.0027C10.5185 24.7046 14.3212 19.5775 21.9974 19.5775C24.9551 19.5775 26.4163 20.4247 26.4163 20.4247" fill="white"/>
</svg>

<svg xmlns="http://www.w3.org/2000/svg" width="55.172" height="64" fill="none" viewBox="0 0 50 58"><path fill="#95BF46" d="M43.702 11.198a.548.548 0 0 0-.496-.46c-.206-.017-4.566-.34-4.566-.34s-3.029-3.007-3.36-3.34c-.334-.332-.983-.231-1.235-.157-.037.01-.662.204-1.695.523-1.012-2.91-2.797-5.586-5.938-5.586-.086 0-.176.004-.265.009-.893-1.182-2-1.695-2.956-1.695-7.316 0-10.812 9.147-11.908 13.795-2.843.88-4.863 1.507-5.12 1.588-1.587.498-1.638.548-1.846 2.043C4.16 18.71.007 50.822.007 50.822l32.357 6.062 17.531-3.792s-6.154-41.609-6.193-41.894Zm-13.14-3.22-2.738.847.002-.59c0-1.81-.251-3.267-.654-4.421 1.618.203 2.696 2.044 3.39 4.163Zm-5.398-3.806c.45 1.128.743 2.746.743 4.93l-.002.316-5.655 1.751c1.09-4.202 3.13-6.231 4.914-6.997ZM22.99 2.115c.316 0 .634.107.939.316-2.345 1.104-4.858 3.883-5.92 9.432l-4.47 1.385c1.244-4.233 4.196-11.133 9.451-11.133Z"/><path fill="#5E8E3E" d="M43.209 10.738c-.207-.017-4.567-.34-4.567-.34s-3.029-3.007-3.36-3.34a.83.83 0 0 0-.468-.215l-2.447 50.04 17.53-3.791s-6.154-41.609-6.193-41.894a.548.548 0 0 0-.495-.46"/><path fill="#fff" d="m26.416 20.425-2.161 6.43s-1.894-1.01-4.216-1.01c-3.404 0-3.575 2.135-3.575 2.673 0 2.937 7.656 4.062 7.656 10.941 0 5.412-3.433 8.897-8.062 8.897-5.554 0-8.394-3.456-8.394-3.456l1.487-4.914s2.92 2.507 5.383 2.507c1.61 0 2.265-1.268 2.265-2.194 0-3.83-6.28-4.001-6.28-10.296 0-5.298 3.802-10.425 11.478-10.425 2.958 0 4.42.847 4.42.847"/></svg>
